X: 17
T:La Trombe
C:Neil Brookes
N:Play before "The Jackpike" as a set.
M:4/4
L:1/4
Q:2/4=120
K:Ddor
|D>EFDEAG-G/2c/2|AFGEF/2E/2D/2C/2,_B,G,|D>EFDEAG-
G/2c/2|AFGE/4F/4E/4F/4E/4F/E/4F/4E/4F/4E/4D2|
|D>EFDEAG-G/2c/2|AFGEF/2E/2D/2C/2,_B,G,|D>EFDEAG-G/2c/2|AFGEFCD2|
|A>BcAd>efd|ecdBc/2B/2A/2G/2FD|A>BcAd>efg|ecAFAcB2|
|A>BcAd>efd|ecdBc/2B/2A/2G/2FD|D>EFDC>DEC|A,B,CDECD2|
